X: 1
T: SALAMANCA -- REEL
B: Ryan's Mammoth Collection of Fiddle Tunes
R: reel
M: C|
L: 1/8
Z: Contributed 20010525024433 by John Chambers jc:trillian.mit.edu
K: D
vdB \
| .A.D((3FED) .A.D((3FED) | Adcd fdcd | BEE2 BEE2 | gfed ceag \
| fBB2 bBB2 | Adce dfag | fdec dBAG | FAEA D2 :|
|: fg \
| afdf bgec | dfeg fedc | Bdce defg | a2((3ba^g) afdf \
| abaf gage | fdec dfag | fdec dBAG | FGEF D2 :|
